X:1
T:Musical Offering Fuga canonica (A = 415Hz)
T:BWV 1079
T:J. S. Bach
%%score 1 { 2 | 3 }
L:1/8
Q:1/4=132
M:2/2
K:D
V:1 treble nm="Harp"
V:2 alto1 nm="Harp"
V:3 bass 
V:1
"^Allegro" z8 | z8 | z8 | z8 | z8 | z8 | z8 | z8 | z8 | z8 | F4 A4 | c4 d4 | =F4 z2 c2 | =c4 B4 | %14
 ^A4 =A4- | A2 ^G2 =G2 F2 | =F2 ^DC ^F2 B2 | A4 ^G4 | Fcf^g aedc | Be^ga bfed | ceab c'4- | %21
 c'2 c4 f2- | f2 e^d e4- | e2 ^dc d2 =d2- | d2 ^G2 c2 B2 | ^A^GFG =AGAF | ^G4 z4 | z8 | z2 E2 A4- | %29
 A2 F2 B4- | B2 ^G2 c=c^c^d | e^def e=dce | dcde dcBd | cBcd cedc | B4 b4- | %35
 b2 ^a^g b/4a/4b/4a/4b/4a/4b/4a/4 b/4a/4b/4a/4b/4a/4b/4a/4 | bf^dc Bef^g | aecB A^def | g4- gfeg | %39
 f4- f^def | Bc^dB e4- | e2 ^dc _e2 =d2- | d2 cB c2 ^B2 | B^AB=c Bd^cB | f2 F2 z4 | z8 | z8 | z8 | %48
 B4 d4 | f4 g4 | ^A4 z2 f2 | =f4 e4 | ^d4 =d4- | d2 c2 =c2 B2 | ^A2 ^GF B2 e2 | %55
 d4 d/4c/4d/4c/4d/4c/4d/4c/4 d/4c/4d/4c/4d/4c/4d/4c/4 | BFBc dAGF | EAcd eBAG | FBde f4- | %59
 fF^GA BcdB | cdcB A^GFA | ^GF G2- GcBc | FE F2- FB^AB | E2 e2- e^ABd | c4- cBA^G | F2 f4 e2- | %66
 e2 d2 cc'ba | ^gbef gabg | a2 c2 z f^ga | ^gbag f=f^fa | ^gfgc' c2 a2- | a2 ^gf g4- | %72
 g2 =g2 f2 c2 | d8- | dcBc A2 G2- | GF^G^A Bcde | %76
 d2- d/c/B/c/ d/4c/4d/4c/4d/4c/4d/4c/4 d/4c/4d/4c/4d/4c/4d/4c/4 | !fermata!B8 |] %78
V:2
 B,4 D4 | F4 G4 | ^A,4 z2 F2 | =F4 E4 | ^D4 =D4- | D2 C2 =C2 B,2 | ^A,2 ^G,F, B,2 E2 | D4 C4 | %8
 B,FBc dAGF | EAcd eBAG | FAde f4- | f2 F4 B2- | B2 A^G A4- | A2 ^GF G2 =G2- | G2 C2 F2 E2 | %15
 ^DCB,C =DCDB, | C4 z4 | z8 | z2 A,2 D4- | D2 B,2 E4- | E2 C2 F^EF^G | A^GAB A=GFA | GFGA GFEG | %23
 FEFG FAGF | E4 e4- | e2 ^dc e/4d/4e/4d/4e/4d/4e/4d/4 e/4d/4e/4d/4e/4d/4e/4d/4 | eB^GF EABc | %27
 dAFE D^GAB | =c4- cBAc | B4- B^GAB | EF^GE A4- | A2 ^GF G2 =G2- | G2 FE F2 =F2 | E^DE=F EG^FE | %34
 B2 B,2 z4 | z8 | z8 | z8 | E4 G4 | B4 =c4 | ^D4 z2 B2 | ^A4 =A4 | ^G4 =G4- | G2 F2 =F2 E2 | %44
 ^D2 CB, E2 A2 | G4 G/4F/4G/4F/4G/4F/4G/4F/4 G/4F/4G/4F/4G/4F/4G/4F/4 | EB,EF GD=CB, | %47
 A,DFG AED=C | B,EGA B4- | BB,CD EFGE | FGFE DCB,D | CB, C2- CFEF | B,A, B,2- B,E^DE | %53
 A,2 A2- A^DEG | F4- FEDC | B,2 B4 A2- | A2 G2 Ffed | ceAB cdec | d2 F2 z Bcd | cedc B^ABd | %60
 cBcf F2 d2- | d2 cB c4- | c2 =c2 B2 F2 | G8 | GFEF D2 =C2- | CB,^C^D EFGA | %66
 G2- G/F/E/F/ G/4F/4G/4F/4G/4F/4G/4F/4 G/4F/4G/4F/4G/4F/4G/4F/4 | !fermata!E4 z2 D2 | CFAc f4- | %69
 f2 =f2 ^f2 B2- | B2 ^E2 F2 C2 | F4- FB,CD | ECDE A,F^G^A | Bcdc BA^GF | E2 e3 dcd | %75
 e^ABc F2 ^A,2 | B,2 B4 ^A2 | !fermata!B8 |] %78
V:3
 z4 z2 B,,C, | D,B,,C,D, E,B,, E,2- | E,G,F,E, D,C,B,,A,, | ^G,,D,C,B,, ^A,,F,,G,,A,, | %4
 B,,F,,B,,C, B,,A,,G,,F,, | E,,B,,E,^D, E,4- | E,C,D,E, D,C,B,,^A,, | B,,2 G,,2 E,,2 F,,2 | %8
 B,,,4 z2 B,,2 | C,4 z2 C,,2 | D,,4 z D,C,B,, | A,,F,,^G,,A,, B,,C,D,B,, | C,2 C,,2 z C,^D,E, | %13
 ^D,F,E,D, E,B,,C,=D, | C,E,D,C, D,A,,B,,C, | B,,F,B,^A, B,4- | B,^G,A,B, A,G,F,=F, | %17
 F,E,D,C, B,,D,C,B,, | A,,2 F,,2 z2 F,2 | ^G,4 z2 ^G,,2 | A,,4 z2 A,^G, | F,=F,^F,^G, F,E,D,C, | %22
 B,,4 C,4 | ^A,,4 B,,2 B,2 | CB,CD CB,^A,^G, | F,2 B,4 B,,2 | E,2 D,2 C,4 | =C,4 B,,4 | %28
 A,,E,A,G, F,2 E,2 | ^D,C,D,F, E,2 =D,2 | C,D,E,D, C,2 F,2 | E,4 z2 A,,2 | D,4 z2 D,,2 | %33
 A,,2 A,^G, A,4- | A,2 G,F, G,F,E,D, | C,B,,C,D, C,D,E,C, | ^D,2 B,2 =D,2 B,,2 | %37
 C,2 A,2 =C,2 A,,2 | E,^D,E,F, E,D,C,E, | ^D,E,F,G, A,4- | A,G,F,A, G,F,E,D, | %41
 C,2 F,,2 B,,C,D,B,, | E,2 E,,2 A,,B,,=C,A,, | D,C, D,2 ^G,,2 A,,2- | A,,F,G,A, G,F,E,^D, | %45
 E,F,G,A, B,=CB,A, | G,2 F,2 E,2 G,2 | F,2 E,2 D,2 F,2 | G,,4 z G,F,E, | D,2 B,,2 z4 | %50
 z2 F,2 B,4- | B,2 ^A,^G, F,G, =A,2- | A,2 ^G,F, E,F, =G,2- | G,F,E,^D, E,4- | %54
 E,C,D,E, D,C,B,,^A,, | B,,A,,G,,F,, E,,D,,E,,F,, | G,,4 z2 z ^G,, | A,,4 z2 z ^A,, | B,,4 D,4 | %59
 F,4 G,4 | ^A,,4 z2 F,2 | =F,4 E,4 | ^D,4 =D,4- | D,2 C,2 =C,2 B,,2 | ^A,,2 ^G,,F,, B,,2 E,2 | %65
 D,2 C,B,, C,4 | B,,2 B,2- B,A, D2- | D2 C2 B,2 =F,2 | F,2 E,2 D,2 C,2 | B,,2 C,2 D,4- | %70
 D,2 C,B,, A,,^G,,F,,E,, | D,,B,,C,^D, E,F,E,=D, | C,A,,B,,C, D,2 F,2 | B,,2 F,,2 D,,2 B,,,2 | %74
 C,,2 C,4 B,,2 | ^A,,2 D,4 C,2 | B,,2 G,,2 E,,2 F,,2 | !fermata!B,,,8 |] %78

